X:112
T:Derborence
M:6/8
K:C
|"Am"A2Bc2e|a2ge2g|"E"gfed2a|"Am"agfe2E|
A2Bc2e|a2ge2g|"E"edc BGB|"Am"A3z2G|
"C"c2de2g|a2ge2g|"G"gfed2a|"C"agfe2G|
"C"c2de2g|a2ge2f|"G"gfe ded|"C"c3cfa|
|:"F"c'3a3|"Bb"g3"F"f3|"Bb"d^cdf2d|"B dim"B3"F"c2z|
"Bb"d^cdf2d|"F"cfga3|1"G"g^fg de=f|
"C"ged cfa:|2"G"gag "C"cde|"F"f3||
